X:287
T:
R:polska
C:Olof Laurin
S:Av komministern Olof Laurin i Dalhem.
O:Gotland, Dalhem
M:3/4
L:1/16
K:Dm
D2DE F2FG A4|d4 c2cB A4|AcBA GBAG FAGF|EGFE DFED A,4|
DA,DF ADFA d4|f2ed ^cdec A4|AGBG GFAF FEGE|DFA,^C E4 D4::
=C2F2 F2A2 c4|d4 c2E2 F4|F2f2 f2ed d2c2|E2 Ld4 cB B2A2|
F2f2 f2ed d2c2|E2 Ld4 cB B2A2|A2GA B2AG A2GF|E2DE F2A,^C D4:|

